X:1
T:Title
%%score { 1 | 2 }
L:1/8
M:6/8
K:G
V:1 treble nm="Grand Piano"
V:2 bass 
V:1
 z3 z2[Q:1/4=99] D | D>EF GFG | B3 A2 A | A>AA ABc |[M:5/8] [DB]-[DB]- [DB]3 |[M:1/8] [B,D] | %6
[M:3/4] [B,D]>[CE] [CF][B,G] [CA][DB] | [CE]3 [EA]2 [EA] | G>G AB B>A | %9
[M:5/8] [B,G]-[B,G]- [B,G]3 |[M:1/8] [Bd] |[M:3/4] [Bd]>[Ac] [GB][Bd] [Ac]<.[GB] | %12
 [Ac]3 [Ac]2 [Ac] | [Ac]>[GB] [FA][FA] [GB][Ac] |[M:5/8] [DGB]-[DGB]- [DGB]3 |[M:1/8] [DBd] | %16
[M:3/4] [DBd]>[DAc] [DGB][DGB] [CFA][B,EG] | [CEG]3 E2 E | D.G A.B GA | %19
[M:5/8] [B,G]-[B,G]- [B,G]3 |] %20
V:2
 z3 z2 [G,B,] | [G,B,]>[G,C][G,C] [G,B,][G,A,][G,B,] | [D,G,D]3 [D,F,D]2 [D,F,D] | %3
 [D,F,D]>[D,F,D][D,F,D] [D,F,D][D,G,D][D,A,D] |[M:5/8] [G,,G,]-[G,,G,]- [G,,G,]3 |[M:1/8] [G,,G,] | %6
[M:3/4] [G,,G,]>[G,,G,] [G,,G,][G,,G,] [G,,G,][G,,G,] | [C,G,]3 [C,C]2 [C,C] | %8
 [D,B,D]>[D,G,B,] [D,G,C][D,G,D] [D,G,D]>[D,F,C] |[M:5/8] [G,,G,]-[G,,G,]- [G,,G,]3 | %10
[M:1/8] [G,D] |[M:3/4] [G,D]>[G,D] [G,D][G,D] [G,D]<.[G,D] | [D,D]3 [D,D]2 [D,D] | %13
 [D,D]>[D,D] [D,D][D,D] [D,D][D,D] |[M:5/8] G,-G,- G,3 |[M:1/8] G, |[M:3/4] G,>G, G,G, D,E, | %17
 C,3 [C,G,C]2 [C,G,C] | [D,G,B,].[D,G,B,] [D,G,C].[D,G,D] [D,G,B,][D,F,C] | %19
[M:5/8] [G,,G,]-[G,,G,]- [G,,G,]3 |] %20

